public/logos/9M.svg

<?xml version="1.0" encoding="UTF-8"?>
<svg xmlns="http://www.w3.org/2000/svg" xmlns:xlink="http://www.w3.org/1999/xlink" width="177.17pt" height="31.89pt" viewBox="0 0 177.17 31.89" version="1.1">
<defs>
<clipPath id="clip1">
  <path d="M 81 0 L 177.171875 0 L 177.171875 31.890625 L 81 31.890625 Z M 81 0 "/>
</clipPath>
</defs>
<g id="surface1">
<g clip-path="url(#clip1)" clip-rule="nonzero">
<path style="fill:none;stroke-width:30;stroke-linecap:butt;stroke-linejoin:miter;stroke:rgb(78.779602%,45.339966%,10.816956%);stroke-opacity:1;stroke-miterlimit:4;" d="M 985.820312 11.673437 L 1164.101562 155.775 L 1198.28125 150.853125 L 1386.328125 297.415625 L 1440.078125 221.7125 L 1506.015625 155.775 L 1557.304688 148.43125 L 1598.828125 89.798437 L 1694.0625 153.314062 L 1760 70.267187 " transform="matrix(0.1,0,0,-0.1,0,31.89)"/>
</g>
<path style=" stroke:none;fill-rule:nonzero;fill:rgb(88.563538%,13.401794%,14.208984%);fill-opacity:1;" d="M 26.023438 3.507812 L 25.507812 8.746094 C 24.828125 8.40625 24.296875 8.183594 23.910156 8.085938 C 23.527344 7.988281 22.964844 7.941406 22.230469 7.941406 L 15.78125 7.941406 C 14.703125 7.941406 13.992188 8.054688 13.660156 8.285156 C 13.328125 8.515625 13.054688 9.074219 12.84375 9.96875 L 9.691406 23.492188 C 9.546875 24.082031 9.476562 24.492188 9.476562 24.714844 C 9.476562 25.292969 9.75 25.667969 10.292969 25.835938 C 10.578125 25.917969 11.097656 25.953125 11.84375 25.953125 L 18.042969 25.953125 C 19.609375 25.941406 20.855469 25.632812 21.78125 25.03125 L 19.804688 30.386719 L 7.285156 30.386719 C 5.433594 30.34375 4.292969 30.304688 3.867188 30.257812 C 3.4375 30.210938 2.988281 30.078125 2.511719 29.855469 C 1.738281 29.488281 1.128906 28.921875 0.675781 28.160156 C 0.226562 27.398438 0 26.554688 0 25.621094 C 0 25.121094 0.128906 24.308594 0.390625 23.179688 L 3.707031 9.023438 C 4.214844 6.871094 5.203125 5.363281 6.664062 4.496094 C 7.386719 4.0625 8.058594 3.792969 8.675781 3.6875 C 9.292969 3.582031 10.484375 3.523438 12.253906 3.511719 L 26.023438 3.511719 L 26.023438 3.507812 "/>
<path style=" stroke:none;fill-rule:nonzero;fill:rgb(88.563538%,13.401794%,14.208984%);fill-opacity:1;" d="M 41.804688 18.214844 L 49.480469 3.507812 L 62.449219 3.507812 C 61.972656 4.296875 61.621094 4.980469 61.398438 5.554688 C 61.171875 6.132812 60.929688 6.980469 60.667969 8.097656 L 56.285156 26.839844 C 56.128906 27.484375 56.050781 28.191406 56.050781 28.964844 C 56.050781 29.386719 56.128906 29.859375 56.285156 30.382812 L 45.382812 30.382812 C 45.847656 29.621094 46.195312 28.945312 46.425781 28.355469 C 46.65625 27.765625 46.90625 26.910156 47.164062 25.796875 L 51.050781 9.179688 L 39.988281 30.382812 L 33.363281 30.382812 L 32.113281 9.257812 L 28.019531 26.839844 C 27.851562 27.523438 27.769531 28.230469 27.769531 28.96875 C 27.769531 29.398438 27.851562 29.871094 28.019531 30.382812 L 22.460938 30.382812 C 22.925781 29.625 23.273438 28.945312 23.503906 28.355469 C 23.734375 27.765625 23.980469 26.914062 24.242188 25.796875 L 28.625 7.054688 C 28.777344 6.410156 28.855469 5.703125 28.855469 4.925781 C 28.855469 4.496094 28.777344 4.019531 28.625 3.507812 L 40.929688 3.507812 L 41.804688 18.214844 "/>
<path style=" stroke:none;fill-rule:nonzero;fill:rgb(88.563538%,13.401794%,14.208984%);fill-opacity:1;" d="M 77.660156 18.925781 L 75.773438 8.628906 L 69.539062 18.925781 Z M 84.125 3.507812 L 88.382812 25.953125 C 88.605469 27.203125 88.835938 28.121094 89.066406 28.710938 C 89.296875 29.300781 89.648438 29.859375 90.109375 30.382812 L 78.640625 30.382812 C 79.03125 29.585938 79.226562 28.878906 79.226562 28.277344 C 79.226562 27.660156 79.140625 26.867188 78.960938 25.894531 L 78.445312 23.101562 L 67.027344 23.101562 L 64.265625 27.589844 C 63.742188 28.441406 63.480469 29.152344 63.480469 29.714844 C 63.480469 29.859375 63.503906 30.082031 63.554688 30.382812 L 57.015625 30.382812 C 57.96875 29.519531 58.988281 28.25 60.078125 26.585938 L 73.222656 5.023438 C 72.894531 4.59375 72.605469 4.285156 72.359375 4.109375 C 72.117188 3.929688 71.742188 3.730469 71.230469 3.507812 L 84.125 3.507812 "/>
</g>
</svg>

<svg xmlns="http://www.w3.org/2000/svg" width="236.227" height="42.52" viewBox="0 0 177.17 31.89"><defs><clipPath id="a"><path d="M81 0h96.172v31.89H81Zm0 0"/></clipPath></defs><g clip-path="url(#a)"><path d="m985.82 11.673 178.282 144.102 34.18-4.922 188.046 146.563 53.75-75.703 65.938-65.938 51.289-7.344 41.523-58.633 95.235 63.516L1760 70.267" style="fill:none;stroke-width:30;stroke-linecap:butt;stroke-linejoin:miter;stroke:#c9741c;stroke-opacity:1;stroke-miterlimit:4" transform="matrix(.1 0 0 -.1 0 31.89)"/></g><path d="m26.023 3.508-.515 5.238q-1.019-.511-1.598-.66-.576-.146-1.68-.145h-6.449c-1.078 0-1.789.114-2.12.344q-.5.344-.817 1.684L9.69 23.492q-.215.887-.214 1.223 0 .868.816 1.12c.285.083.805.118 1.55.118h6.2q2.349-.019 3.738-.922l-1.976 5.356H7.285c-1.851-.043-2.992-.082-3.418-.13a4.3 4.3 0 0 1-1.355-.402c-.774-.367-1.383-.933-1.836-1.695A4.9 4.9 0 0 1 0 25.621q0-.749.39-2.441L3.708 9.023q.764-3.227 2.957-4.527 1.086-.65 2.012-.809.924-.158 3.578-.175h13.77zM41.805 18.215 49.48 3.508h12.97q-.716 1.184-1.052 2.047-.338.866-.73 2.543L56.285 26.84a9 9 0 0 0-.234 2.125q0 .633.234 1.418H45.383q.697-1.143 1.043-2.028c.23-.59.48-1.445.738-2.558L51.051 9.18 39.988 30.383h-6.625l-1.25-21.125L28.02 26.84a9 9 0 0 0-.25 2.129q-.001.645.25 1.414h-5.56c.466-.758.813-1.438 1.044-2.028q.345-.883.738-2.558l4.383-18.742c.152-.645.23-1.352.23-2.13 0-.429-.078-.905-.23-1.417H40.93zM77.66 18.926 75.773 8.629 69.54 18.926Zm6.465-15.418 4.258 22.445c.222 1.25.453 2.168.683 2.758a5.7 5.7 0 0 0 1.043 1.672H78.641c.39-.797.586-1.504.586-2.106 0-.617-.086-1.41-.266-2.382l-.516-2.793H67.027l-2.761 4.488c-.524.851-.786 1.562-.786 2.125q0 .216.075.668h-6.54c.954-.863 1.973-2.133 3.063-3.797L73.223 5.023c-.328-.43-.618-.738-.864-.914q-.362-.269-1.129-.601z" style="stroke:none;fill-rule:nonzero;fill:#e22224;fill-opacity:1"/></svg>
